tipitek/img/icon-trading.svg

<svg width="16" height="17" viewBox="0 0 16 17" fill="none" xmlns="http://www.w3.org/2000/svg">
<path fill-rule="evenodd" clip-rule="evenodd" d="M9.93101 2.39465C10.207 2.39465 10.431 2.61865 10.431 2.89465C10.431 3.17065 10.207 3.39465 9.93101 3.39465H5.08567C3.41367 3.39465 2.33301 4.54399 2.33301 6.32399V11.712C2.33301 13.5153 3.38767 14.6353 5.08567 14.6353H10.8217C12.4937 14.6353 13.5743 13.488 13.5743 11.712V7.01932C13.5743 6.74332 13.7983 6.51932 14.0743 6.51932C14.3503 6.51932 14.5743 6.74332 14.5743 7.01932V11.712C14.5743 14.0587 13.0663 15.6353 10.8217 15.6353H5.08567C2.84101 15.6353 1.33301 14.0587 1.33301 11.712V6.32399C1.33301 3.97399 2.84101 2.39465 5.08567 2.39465H9.93101ZM11.3413 6.94785C11.5599 7.11719 11.5999 7.43119 11.4306 7.64919L9.47727 10.1692C9.39594 10.2745 9.27594 10.3432 9.14394 10.3592C9.01061 10.3772 8.87861 10.3385 8.77327 10.2565L6.89461 8.78052L5.20727 10.9732C5.10861 11.1012 4.96061 11.1685 4.81061 11.1685C4.70394 11.1685 4.59661 11.1345 4.50594 11.0652C4.28727 10.8965 4.24594 10.5825 4.41461 10.3639L6.40994 7.77052C6.49127 7.66452 6.61194 7.59585 6.74394 7.57919C6.87861 7.56185 7.01061 7.59919 7.11527 7.68252L8.99527 9.15919L10.6399 7.03719C10.8093 6.81785 11.1226 6.77719 11.3413 6.94785ZM13.3113 1.83325C14.2939 1.83325 15.0926 2.63192 15.0926 3.61459C15.0926 4.59725 14.2939 5.39659 13.3113 5.39659C12.3293 5.39659 11.5299 4.59725 11.5299 3.61459C11.5299 2.63192 12.3293 1.83325 13.3113 1.83325ZM13.3113 2.83325C12.8806 2.83325 12.5299 3.18325 12.5299 3.61459C12.5299 4.04525 12.8806 4.39659 13.3113 4.39659C13.7419 4.39659 14.0926 4.04525 14.0926 3.61459C14.0926 3.18325 13.7419 2.83325 13.3113 2.83325Z" fill="#30CBFF"/>
</svg>

<svg width="16" height="17" fill="none" xmlns="http://www.w3.org/2000/svg"><path fill-rule="evenodd" clip-rule="evenodd" d="M9.931 2.395a.5.5 0 0 1 0 1H5.086c-1.672 0-2.753 1.149-2.753 2.929v5.388c0 1.803 1.055 2.923 2.753 2.923h5.736c1.672 0 2.752-1.147 2.752-2.923V7.019a.5.5 0 0 1 1 0v4.693c0 2.347-1.508 3.923-3.752 3.923H5.086c-2.245 0-3.753-1.576-3.753-3.923V6.324c0-2.35 1.508-3.93 3.753-3.93H9.93zm1.41 4.553a.5.5 0 0 1 .09.701l-1.954 2.52a.497.497 0 0 1-.704.088L6.895 8.78l-1.688 2.192a.5.5 0 1 1-.792-.61L6.41 7.772a.5.5 0 0 1 .705-.088l1.88 1.476 1.645-2.122c.17-.22.483-.26.701-.09zm1.97-5.115a1.783 1.783 0 0 1 0 3.564c-.982 0-1.781-.8-1.781-1.782 0-.983.8-1.782 1.781-1.782zm0 1a.782.782 0 1 0 .002 1.564.782.782 0 0 0-.002-1.564z" fill="#30CBFF"/></svg>
